app/dist/common/images/china-tungsten-and-h.svg

<svg height="18" viewBox="0 0 18 18" width="18" xmlns="http://www.w3.org/2000/svg" xmlns:xlink="http://www.w3.org/1999/xlink"><linearGradient id="a" gradientUnits="userSpaceOnUse" x1="4.98" x2="4.98" y1="7" y2="11"><stop offset="0" stop-color="#cab388"/><stop offset="1" stop-color="#bc996c"/></linearGradient><linearGradient id="b" gradientUnits="userSpaceOnUse" x1="12.9" x2="12.9" y1="7" y2="11"><stop offset="0" stop-color="#c8b084"/><stop offset="1" stop-color="#c09e72"/></linearGradient><linearGradient id="c" gradientUnits="userSpaceOnUse" x1="9" x2="9" y1="7" y2="11"><stop offset="0" stop-color="#ccb68c"/><stop offset="1" stop-color="#bf9d71"/></linearGradient><linearGradient id="d" gradientUnits="userSpaceOnUse" x1="6.7" x2="5.36" y1="7.25" y2="8.64"><stop offset="0" stop-color="#a0784b"/><stop offset="1" stop-color="#a0784b" stop-opacity="0"/></linearGradient><linearGradient id="e" gradientUnits="userSpaceOnUse" x1="9.03" x2="9.31" y1="7.17" y2="8.91"><stop offset="0" stop-color="#c1ab7c"/><stop offset="1" stop-color="#9f7649"/></linearGradient><linearGradient id="f" gradientUnits="userSpaceOnUse" x1="11.51" x2="14.76" y1="8" y2="7.93"><stop offset="0" stop-color="#9f7648"/><stop offset="1" stop-color="#b69a67"/></linearGradient><path d="m0 0h18v18h-18z" fill="#f0f3fa"/><path d="m3 11h3.03l.93-1h-2.96v-2h2.03l.93-1h-3l-.96 1.16z" fill="url(#a)"/><path d="m13 8h2l-1-1h-2.35l-.85 1h1.2v3h1z" fill="url(#b)"/><path d="m7 7v4h1v-2.87l1 1 1-1v2.87h1v-4z" fill="url(#c)"/><path d="m4.5 8h1.53l.93-1h-.1l-2.46.9z" fill="url(#d)"/><path d="m10.6 7h-1.6v2.11z" fill="url(#e)"/><path d="m15 8-1-1-2.82 1z" fill="url(#f)"/></svg>

<!-- by TradingView --><svg width="18" height="18" viewBox="0 0 18 18" xmlns="http://www.w3.org/2000/svg"><path fill="#F0F3FA" d="M0 0h18v18H0z"/><path d="M3 11h3.03l.93-1H4V8h2.03l.93-1h-3L3 8.16V11Z" fill="url(#a5zsxsdrt)"/><path d="M13 8h2l-1-1h-2.35l-.85 1H12v3h1V8Z" fill="url(#b5zsxsdrt)"/><path d="M7 7v4h1V8.13l1 1 1-1V11h1V7H7Z" fill="url(#c5zsxsdrt)"/><path d="M4.5 8h1.53l.93-1h-.1l-2.46.9.1.1Z" fill="url(#d5zsxsdrt)"/><path d="M10.6 7H9v2.11L10.6 7Z" fill="url(#e5zsxsdrt)"/><path d="m15 8-1-1-2.82 1H15Z" fill="url(#f5zsxsdrt)"/><defs><linearGradient id="a5zsxsdrt" x1="4.98" y1="7" x2="4.98" y2="11" gradientUnits="userSpaceOnUse"><stop stop-color="#CAB388"/><stop offset="1" stop-color="#BC996C"/></linearGradient><linearGradient id="b5zsxsdrt" x1="12.9" y1="7" x2="12.9" y2="11" gradientUnits="userSpaceOnUse"><stop stop-color="#C8B084"/><stop offset="1" stop-color="#C09E72"/></linearGradient><linearGradient id="c5zsxsdrt" x1="9" y1="7" x2="9" y2="11" gradientUnits="userSpaceOnUse"><stop stop-color="#CCB68C"/><stop offset="1" stop-color="#BF9D71"/></linearGradient><linearGradient id="d5zsxsdrt" x1="6.7" y1="7.25" x2="5.36" y2="8.64" gradientUnits="userSpaceOnUse"><stop stop-color="#A0784B"/><stop offset="1" stop-color="#A0784B" stop-opacity="0"/></linearGradient><linearGradient id="e5zsxsdrt" x1="9.03" y1="7.17" x2="9.31" y2="8.91" gradientUnits="userSpaceOnUse"><stop stop-color="#C1AB7C"/><stop offset="1" stop-color="#9F7649"/></linearGradient><linearGradient id="f5zsxsdrt" x1="11.51" y1="8" x2="14.76" y2="7.93" gradientUnits="userSpaceOnUse"><stop stop-color="#9F7648"/><stop offset="1" stop-color="#B69A67"/></linearGradient></defs></svg>
